src/2-landmarks/subway-interior--door-closed.svg

<svg width="1300" height="1000" viewBox="0 0 1300 1000" fill="none" xmlns="http://www.w3.org/2000/svg"><g clip-path="url(#a)" fill="#000"><path fill-rule="evenodd" clip-rule="evenodd" d="M957 0h-7v80c0 11.046 8.954 20 20 20h54.12l-19.47 34.545c-1.88 3.333.53 7.455 4.36 7.455h46.98c3.83 0 6.24-4.122 4.36-7.455L1040.88 100h95.24l-19.47 34.545c-1.88 3.333.53 7.455 4.36 7.455h46.98c3.83 0 6.24-4.122 4.36-7.455L1152.88 100h95.24l-19.47 34.545c-1.88 3.333.53 7.455 4.36 7.455h46.98c3.83 0 6.24-4.122 4.36-7.455L1264.88 100H1300v-7H972c-8.284 0-15-6.716-15-15V0Zm75.99 100h-.98l-20.71 35h42.4l-20.71-35Zm90.31 35 20.71-35h.98l20.71 35h-42.4Zm133.69-35h-.98l-20.71 35h42.4l-20.71-35ZM420 200c-11.046 0-20 8.954-20 20v680h-80V720h10c11.046 0 20-8.954 20-20v-20c0-11.046-8.954-20-20-20h-10v-10c0-11.046-8.954-20-20-20H0v7h298c8.284 0 15 6.716 15 15v8H70c-6.85 0-12.895 3.444-16.5 8.694C49.895 663.444 43.85 660 37 660H0v7h35c8.284 0 15 6.716 15 15v16c0 8.284-6.716 15-15 15H0v7h37c6.85 0 12.895-3.444 16.5-8.694C57.105 716.556 63.15 720 70 720h243v180H0v100h1300V900H987V720h243c6.85 0 12.9-3.444 16.5-8.694 3.6 5.25 9.65 8.694 16.5 8.694h37v-7h-35c-8.28 0-15-6.716-15-15v-16c0-8.284 6.72-15 15-15h35v-7h-37c-6.85 0-12.9 3.444-16.5 8.694-3.6-5.25-9.65-8.694-16.5-8.694H987v-8c0-8.284 6.716-15 15-15h298v-7h-300c-11.046 0-20 8.954-20 20v10h-10c-11.046 0-20 8.954-20 20v20c0 11.046 8.954 20 20 20h10v180h-80V220c0-11.046-8.954-20-20-20H420Zm473 700v-50H654v50h239Zm-246 0v-50H407v50h240Zm246-57V561H694c-11.046 0-20-8.954-20-20V250c0-11.046 8.954-20 20-20h199v-8c0-8.284-6.716-15-15-15H654v636h239Zm-246 0V207H422c-8.284 0-15 6.716-15 15v8h200c11.046 0 20 8.954 20 20v291c0 11.046-8.954 20-20 20H407v282h240Zm246-606H696c-8.284 0-15 6.716-15 15v287c0 8.284 6.716 15 15 15h197V237ZM605 554H407V237h198c8.284 0 15 6.716 15 15v287c0 8.284-6.716 15-15 15ZM57 698c0 8.284 6.716 15 15 15h256c8.284 0 15-6.716 15-15v-16c0-8.284-6.716-15-15-15H72c-8.284 0-15 6.716-15 15v16Zm1186 0v-16c0-8.284-6.72-15-15-15H972c-8.284 0-15 6.716-15 15v16c0 8.284 6.716 15 15 15h256c8.28 0 15-6.716 15-15Z"/><path d="M0 560v-7h328c8.284 0 15-6.716 15-15V252c0-8.284-6.716-15-15-15H0v-7h330c11.046 0 20 8.954 20 20v290c0 11.046-8.954 20-20 20H0Zm1300-7v7H970c-11.046 0-20-8.954-20-20V250c0-11.046 8.954-20 20-20h330v7H972c-8.284 0-15 6.716-15 15v286c0 8.284 6.716 15 15 15h328Z"/><path fill-rule="evenodd" clip-rule="evenodd" d="M350 0h-7v78c0 8.284-6.716 15-15 15H0v7h35.118L15.65 134.545c-1.878 3.333.53 7.455 4.356 7.455h46.986c3.826 0 6.234-4.122 4.356-7.455L51.882 100h95.236l-19.467 34.545c-1.878 3.333.53 7.455 4.356 7.455h46.986c3.826 0 6.234-4.122 4.356-7.455L163.882 100h95.236l-19.467 34.545c-1.878 3.333.53 7.455 4.356 7.455h46.986c3.826 0 6.234-4.122 4.356-7.455L275.882 100H330c11.046 0 20-8.954 20-20V0ZM22.301 135l20.706-35h.986L64.7 135H22.3Zm133.692-35h-.986l-20.706 35h42.398l-20.706-35Zm90.308 35 20.706-35h.986l20.706 35h-42.398Z"/></g><defs><clipPath id="a"><path fill="#fff" d="M0 0h1300v1000H0z"/></clipPath></defs></svg>

<svg width="1300" height="1000" viewBox="0 0 1300 1000" fill="none" xmlns="http://www.w3.org/2000/svg">
<g clip-path="url(#clip0_179_1025)">
<path fill-rule="evenodd" clip-rule="evenodd" d="M957 0H950V80C950 91.0457 958.954 100 970 100H1024.12L1004.65 134.545C1002.77 137.878 1005.18 142 1009.01 142H1055.99C1059.82 142 1062.23 137.878 1060.35 134.545L1040.88 100H1136.12L1116.65 134.545C1114.77 137.878 1117.18 142 1121.01 142H1167.99C1171.82 142 1174.23 137.878 1172.35 134.545L1152.88 100H1248.12L1228.65 134.545C1226.77 137.878 1229.18 142 1233.01 142H1279.99C1283.82 142 1286.23 137.878 1284.35 134.545L1264.88 100H1300V93H972C963.716 93 957 86.2843 957 78V0ZM1032.99 100H1032.01L1011.3 135H1053.7L1032.99 100ZM1123.3 135L1144.01 100H1144.99L1165.7 135H1123.3ZM1256.99 100H1256.01L1235.3 135H1277.7L1256.99 100Z" fill="black"/>
<path fill-rule="evenodd" clip-rule="evenodd" d="M420 200C408.954 200 400 208.954 400 220V900H320V720H330C341.046 720 350 711.046 350 700V680C350 668.954 341.046 660 330 660H320V650C320 638.954 311.046 630 300 630H0V637H298C306.284 637 313 643.716 313 652V660H70C63.1501 660 57.1046 663.444 53.5 668.694C49.8954 663.444 43.8499 660 37 660H0V667H35C43.2843 667 50 673.716 50 682V698C50 706.284 43.2843 713 35 713H0V720H37C43.8499 720 49.8954 716.556 53.5 711.306C57.1046 716.556 63.1501 720 70 720H313V900H0V1000H1300V900H987V720H1230C1236.85 720 1242.9 716.556 1246.5 711.306C1250.1 716.556 1256.15 720 1263 720H1300V713H1265C1256.72 713 1250 706.284 1250 698V682C1250 673.716 1256.72 667 1265 667H1300V660H1263C1256.15 660 1250.1 663.444 1246.5 668.694C1242.9 663.444 1236.85 660 1230 660H987V652C987 643.716 993.716 637 1002 637H1300V630H1000C988.954 630 980 638.954 980 650V660H970C958.954 660 950 668.954 950 680V700C950 711.046 958.954 720 970 720H980V900H900V220C900 208.954 891.046 200 880 200H420ZM893 900V850H654V900H893ZM647 900V850H407V900H647ZM893 843V561H694C682.954 561 674 552.046 674 541V250C674 238.954 682.954 230 694 230H893V222C893 213.716 886.284 207 878 207H654V843H893ZM647 843V207H422C413.716 207 407 213.716 407 222V230H607C618.046 230 627 238.954 627 250V541C627 552.046 618.046 561 607 561H407V843H647ZM893 237H696C687.716 237 681 243.716 681 252V539C681 547.284 687.716 554 696 554H893V237ZM605 554H407V237H605C613.284 237 620 243.716 620 252V539C620 547.284 613.284 554 605 554ZM57 698C57 706.284 63.7157 713 72 713H328C336.284 713 343 706.284 343 698V682C343 673.716 336.284 667 328 667H72C63.7157 667 57 673.716 57 682V698ZM1243 698V682C1243 673.716 1236.28 667 1228 667H972C963.716 667 957 673.716 957 682V698C957 706.284 963.716 713 972 713H1228C1236.28 713 1243 706.284 1243 698Z" fill="black"/>
<path d="M0 560V553H328C336.284 553 343 546.284 343 538V252C343 243.716 336.284 237 328 237H0V230H330C341.046 230 350 238.954 350 250V540C350 551.046 341.046 560 330 560H0Z" fill="black"/>
<path d="M1300 553V560H970C958.954 560 950 551.046 950 540V250C950 238.954 958.954 230 970 230H1300V237H972C963.716 237 957 243.716 957 252V538C957 546.284 963.716 553 972 553H1300Z" fill="black"/>
<path fill-rule="evenodd" clip-rule="evenodd" d="M350 0H343V78C343 86.2843 336.284 93 328 93H0V100H35.1176L15.651 134.545C13.7728 137.878 16.1812 142 20.007 142H66.9927C70.8185 142 73.2269 137.878 71.3487 134.545L51.8821 100H147.118L127.651 134.545C125.773 137.878 128.181 142 132.007 142H178.993C182.819 142 185.227 137.878 183.349 134.545L163.882 100H259.118L239.651 134.545C237.773 137.878 240.181 142 244.007 142H290.993C294.819 142 297.227 137.878 295.349 134.545L275.882 100H330C341.046 100 350 91.0457 350 80V0ZM22.3012 135L43.0069 100H43.9931L64.6988 135H22.3012ZM155.993 100H155.007L134.301 135H176.699L155.993 100ZM246.301 135L267.007 100H267.993L288.699 135H246.301Z" fill="black"/>
</g>
<defs>
<clipPath id="clip0_179_1025">
<rect width="1300" height="1000" fill="white"/>
</clipPath>
</defs>
</svg>
